icons/mail-settings-fill.svg

<svg xmlns="http://www.w3.org/2000/svg" width="24" height="24" fill="none"><g clip-path="url(#a)"><g><path fill="#121212" d="M22 13.341C20.9317 12.9626 19.7781 12.8945 18.6727 13.1446C17.5674 13.3946 16.5554 13.9527 15.754 14.754C14.9527 15.5554 14.3946 16.5674 14.1446 17.6727C13.8945 18.7781 13.9626 19.9317 14.341 21H3C2.73478 21 2.48043 20.8946 2.29289 20.7071C2.10536 20.5196 2 20.2652 2 20V4C2 3.73478 2.10536 3.48043 2.29289 3.29289C2.48043 3.10536 2.73478 3 3 3H21C21.2652 3 21.5196 3.10536 21.7071 3.29289C21.8946 3.48043 22 3.73478 22 4V13.341ZM12.06 11.683L5.648 6.238L4.353 7.762L12.073 14.317L19.654 7.757L18.346 6.244L12.061 11.683H12.06ZM17.05 19.548C16.9831 19.1857 16.9831 18.8143 17.05 18.452L16.036 17.866L17.036 16.134L18.05 16.72C18.328 16.482 18.649 16.295 19 16.17V15H21V16.17C21.351 16.295 21.672 16.482 21.95 16.72L22.964 16.134L23.964 17.866L22.95 18.452C23.0169 18.8143 23.0169 19.1857 22.95 19.548L23.964 20.134L22.964 21.866L21.95 21.28C21.6699 21.5203 21.3478 21.7067 21 21.83V23H19V21.83C18.6522 21.7067 18.3301 21.5203 18.05 21.28L17.036 21.866L16.036 20.134L17.05 19.548ZM20 20C20.2652 20 20.5196 19.8946 20.7071 19.7071C20.8946 19.5196 21 19.2652 21 19C21 18.7348 20.8946 18.4804 20.7071 18.2929C20.5196 18.1054 20.2652 18 20 18C19.7348 18 19.4804 18.1054 19.2929 18.2929C19.1054 18.4804 19 18.7348 19 19C19 19.2652 19.1054 19.5196 19.2929 19.7071C19.4804 19.8946 19.7348 20 20 20Z"/></g></g><defs><clipPath id="a"><rect width="24" height="24" fill="white"/></clipPath></defs></svg>

<svg width="24" height="24" fill="none" xmlns="http://www.w3.org/2000/svg"><g clip-path="url(#a)"><path d="M22 13.341A6 6 0 0 0 14.341 21H3a1 1 0 0 1-1-1V4a1 1 0 0 1 1-1h18a1 1 0 0 1 1 1v9.341Zm-9.94-1.658L5.648 6.238 4.353 7.762l7.72 6.555 7.581-6.56-1.308-1.513-6.285 5.439h-.001Zm4.99 7.865a3.018 3.018 0 0 1 0-1.096l-1.014-.586 1-1.732 1.014.586c.278-.238.599-.425.95-.55V15h2v1.17c.351.125.672.312.95.55l1.014-.586 1 1.732-1.014.586c.067.362.067.734 0 1.096l1.014.586-1 1.732-1.014-.586c-.28.24-.602.427-.95.55V23h-2v-1.17a2.997 2.997 0 0 1-.95-.55l-1.014.586-1-1.732 1.014-.586ZM20 20a1 1 0 1 0 0-2 1 1 0 0 0 0 2Z" /></g><defs><clipPath id="a"><path fill="#fff" d="M0 0h24v24H0z"/></clipPath></defs></svg>
